X:1
T:Title
%%score 1 { 2 | 3 }
L:1/8
M:4/4
K:Bb
V:1 treble nm="Grand Piano, Unnamed-000"
V:2 bass nm="Choir Pad, Unnamed-001"
V:3 bass 
V:1
 F2 [DB]2 [FB]2 [FA]2 | [EG]2 [DF]2- [DF]/ z/ [EG] [DF]2 | F2 [EG]2 [Gc]2 [FB]2 | [EA]2 [DB]6 | %4
w: By~Gottfried~W.~Fink,~1842 * * *||||
 F2 [DB]2 [FB]2 [FA]2 | [EG]2 [DF]2- [DF]/ z/ [EG] [DF]2 | [Fd]2 [Fc]2 [FB]2 [FA]2 | [=EG]2 F6 | %8
w: ||||
 F2 [CA]2 [CF]2 [DB]2 | F2 [Ec]2 F2 [Fd]2 | c2 [Ge]2 [Gd]2 [Gc]2 | [GB]2 [FB]4 A2 | %12
w: ||||
 F2 [DB]2 [FB]2 [Gc]2 | [Fc]2 [Fd]2- [Fd]/ z/ [Ge] [Bf]2 | [FB]2 [Gc]2 [Ee]2 [Fd]2 | [Fc]2 [FB]6- | %16
w: ||||
 [FB]2 z2 z4 |] %17
w: |
V:2
 F,2 B,2 F,2 z F, | G,A, B,2 A,2 B,2 | B,2 B,2 E2 [F,D]2 | C2 B,6 | F,2 B,2 B,2 B,F, | %5
 [G,B,][A,C] [B,D]2 [A,C]2 [B,D]2 | B,2 C2 B,2 C2 | B,2 [F,A,]6 | F,2 F,2 F,2 F,2 | %9
 B,2 [F,A,]2[K:treble] [A,E]2 [B,D]2 | [G,D]2 C2 =B,2 C2 | [=E,_D]2 [F,C]6 | F,2 B,2 B,2 B,F, | %13
 [G,B,][K:treble][A,C] [B,D]2 [B,C]2 D2 | D2 C2[K:bass] C2 [F,B,]2 | E2 D6- | D2 z2 z4 |] %17
V:3
 z2 B,,2 D,2 E,2 | E,2 B,,2 B,,2 B,,2 | D,2 E,2 C,2 z2 | F,,2 B,,6 | z2 B,,2 D,2 E,2 | z8 | %6
 B,,2 A,,2 D,2 C,2 | C,2 z2 z4 | z2 F,,2 A,,2 B,,2 | D,2 z2 z4 | z2 C,2 E,2 E,2 | z8 | %12
 z2 B,,2 D,2 E,2 | z4 z2 D,2 | D,2 E,2 C,2 z2 | F,,2 B,,6- | B,,2 z2 z4 |] %17

